assets/icons/unordered-list/remove.svg

<?xml version="1.0" encoding="UTF-8" standalone="no"?>
<svg
   viewBox="0 0 24 24"
   height="24"
   id="svg7384"
   version="1.1"
   width="24"
   sodipodi:docname="remove.svg"
   inkscape:version="1.2 (1:1.2.1+202207142221+cd75a1ee6d)"
   xmlns:inkscape="http://www.inkscape.org/namespaces/inkscape"
   xmlns:sodipodi="http://sodipodi.sourceforge.net/DTD/sodipodi-0.dtd"
   xmlns="http://www.w3.org/2000/svg"
   xmlns:svg="http://www.w3.org/2000/svg"
   xmlns:rdf="http://www.w3.org/1999/02/22-rdf-syntax-ns#"
   xmlns:cc="http://creativecommons.org/ns#"
   xmlns:dc="http://purl.org/dc/elements/1.1/">
  <sodipodi:namedview
     id="namedview21"
     pagecolor="#ffffff"
     bordercolor="#666666"
     borderopacity="1.0"
     inkscape:pageshadow="2"
     inkscape:pageopacity="0.0"
     inkscape:pagecheckerboard="0"
     showgrid="true"
     inkscape:snap-page="true"
     inkscape:zoom="11.313709"
     inkscape:cx="-16.617009"
     inkscape:cy="5.347495"
     inkscape:window-width="1920"
     inkscape:window-height="1016"
     inkscape:window-x="0"
     inkscape:window-y="0"
     inkscape:window-maximized="1"
     inkscape:current-layer="svg7384"
     inkscape:showpageshadow="2"
     inkscape:deskcolor="#d1d1d1">
    <inkscape:grid
       type="xygrid"
       id="grid2299" />
  </sodipodi:namedview>
  <metadata
     id="metadata20854">
    <rdf:RDF>
      <cc:Work
         rdf:about="">
        <dc:format>image/svg+xml</dc:format>
        <dc:type
           rdf:resource="http://purl.org/dc/dcmitype/StillImage" />
      </cc:Work>
    </rdf:RDF>
  </metadata>
  <defs
     id="defs7386">
    <linearGradient
       id="linearGradient5606"
       inkscape:swatch="solid">
      <stop
         id="stop5608"
         offset="0"
         style="stop-color:#000000;stop-opacity:1;" />
    </linearGradient>
    <linearGradient
       id="linearGradient4526"
       inkscape:swatch="solid">
      <stop
         id="stop4528"
         offset="0"
         style="stop-color:#ffffff;stop-opacity:1;" />
    </linearGradient>
    <linearGradient
       id="linearGradient3600-4"
       inkscape:swatch="gradient">
      <stop
         id="stop3602-7"
         offset="0"
         style="stop-color:#f4f4f4;stop-opacity:1" />
      <stop
         id="stop3604-6"
         offset="1"
         style="stop-color:#dbdbdb;stop-opacity:1" />
    </linearGradient>
  </defs>
  <g
     id="layer9"
     label="status"
     style="display:inline;fill:#808080;fill-opacity:1;stroke-width:0.8"
     transform="matrix(1.25,0,0,1.25,-438.00025,136.375)" />
  <g
     id="layer2"
     style="display:inline;fill:#808080;fill-opacity:1;stroke-width:0.8"
     transform="matrix(1.25,0,0,1.25,-136.75,-322.375)" />
  <g
     id="layer4"
     style="display:inline;fill:#808080;fill-opacity:1;stroke-width:0.8"
     transform="matrix(1.25,0,0,1.25,-136.75,-322.375)" />
  <g
     id="g1812"
     style="display:inline;fill:#808080;fill-opacity:1;stroke-width:0.8"
     transform="matrix(1.25,0,0,1.25,-136.75,-322.375)" />
  <g
     id="g6217"
     style="display:inline;fill:#808080;fill-opacity:1;stroke-width:0.8"
     transform="matrix(1.25,0,0,1.25,-136.75,-322.375)" />
  <g
     id="layer3"
     style="display:inline;fill:#808080;fill-opacity:1;stroke-width:0.8"
     transform="matrix(1.25,0,0,1.25,-136.75,-322.375)" />
  <g
     id="g1833"
     style="display:inline;fill:#808080;fill-opacity:1;stroke-width:0.8"
     transform="matrix(1.25,0,0,1.25,-136.75,-322.375)" />
  <g
     id="layer1"
     style="display:inline;fill:#808080;fill-opacity:1;stroke-width:0.8"
     transform="matrix(1.25,0,0,1.25,-136.75,-322.375)" />
  <path
     id="rect2020"
     style="fill:#808080;fill-opacity:1;fill-rule:evenodd;stroke-width:0.5;stroke-linecap:square"
     d="M 5 5 L 5 8 L 6 8 L 7 8 L 8 8 L 8 6.2929688 L 6.7070312 5 L 6 5 L 5 5 z M 6 6 L 7 6 L 7 7 L 6 7 L 6 6 z M 10 6 L 10 6.8789062 L 10.121094 7 L 20 7 L 20 6 L 10 6 z M 5 10 L 5 13 L 6 13 L 7 13 L 8 13 L 8 10 L 7 10 L 6 10 L 5 10 z M 6 11 L 7 11 L 7 12 L 6 12 L 6 11 z M 10 11 L 10 12 L 13.707031 12 L 12.707031 11 L 10 11 z M 14.121094 11 L 15.121094 12 L 20 12 L 20 11 L 14.121094 11 z M 5 15 L 5 18 L 6 18 L 7 18 L 8 18 L 8 15 L 7 15 L 6 15 L 5 15 z M 6 16 L 7 16 L 7 17 L 6 17 L 6 16 z M 10 16 L 10 17 L 18.707031 17 L 17.707031 16 L 10 16 z M 19.121094 16 L 20 16.878906 L 20 16 L 19.121094 16 z " />
  <path
     style="color:#000000;fill:#808080;-inkscape-stroke:none"
     d="m 4.3535156,2.6464844 -0.7070312,0.7070312 16.9999996,17.0000004 0.707032,-0.707032 z"
     id="path2931" />
</svg>

<svg height="24" width="24" xmlns="http://www.w3.org/2000/svg"><path style="fill:gray;fill-opacity:1;stroke-width:.5;stroke-linecap:square" d="M5 5v3h3V6.293L6.707 5H5zm1 1h1v1H6V6zm4 0v.879l.121.121H20V6H10zm-5 4v3h3v-3H5zm1 1h1v1H6v-1zm4 0v1h3.707l-1-1H10zm4.121 0 1 1H20v-1h-5.879zM5 15v3h3v-3H5zm1 1h1v1H6v-1zm4 0v1h8.707l-1-1H10zm9.121 0 .879.879V16h-.879z"/><path style="color:#000;fill:gray;-inkscape-stroke:none" d="m4.354 2.646-.708.708 17 17 .708-.708z"/></svg>
